public/img/skills/JQuery.svg

<svg width="100" height="80" viewBox="0 0 100 80" fill="none" xmlns="http://www.w3.org/2000/svg">
<path d="M85.9622 59.4702L85.5586 57.6754C85.2448 56.3741 84.3032 55.7908 82.1958 55.7908H73.318C73.0938 55.7908 72.9145 55.8805 72.8696 56.1049L69.5068 72.0791C69.462 72.3035 69.462 72.4381 69.462 72.5278C69.5068 72.6176 69.8655 72.6176 70.0897 72.6176H73.1835C73.4077 72.6176 73.7664 72.6176 73.856 72.5727C73.9906 72.5278 74.0354 72.2137 74.0802 72.0342L75.1563 66.4253L76.5015 60.1882C76.5463 60.0087 76.7257 59.8292 76.9498 59.8292H85.738C85.8725 59.8292 86.007 59.6497 85.9622 59.4702Z" fill="white"/>
<path d="M98.4718 52.9639C98.2476 52.9639 94.571 52.9639 94.571 52.9639C94.3468 52.9639 94.1226 53.1882 93.9881 53.3677L87.1279 63.4189C86.9934 63.5984 86.8589 63.5984 86.8141 63.374L86.3209 61.1753C86.276 60.9959 86.0518 60.8164 85.8725 60.8164H81.4784C81.2542 60.8164 81.1646 60.9959 81.2094 61.1753L83.1822 68.0856C83.2271 68.265 83.2271 68.624 83.1822 68.8035L82.2407 72.3035C82.1958 72.483 82.3303 72.5727 82.5097 72.5727H86.8589C87.0831 72.5727 87.2624 72.5278 87.3073 72.3035L88.2489 68.7586C88.2937 68.5791 88.4282 68.3099 88.5627 68.1304L99.7273 53.3228C99.8618 53.1434 99.8169 52.9639 99.6376 52.9639H98.4718Z" fill="white"/>
<path d="M52.648 55.7908H48.6574C48.4333 55.7908 48.2539 55.8805 48.2091 56.06L46.9088 62.2074L45.6085 68.0856C45.5637 68.265 45.3843 68.265 45.1601 68.265H42.5595C39.959 68.265 40.2728 66.6497 40.8109 64.1817C40.8109 64.1369 42.4699 56.06 42.4699 56.06C42.5147 55.8805 42.3802 55.7908 42.156 55.7908H38.3897C38.1655 55.7908 37.9861 55.8805 37.9413 56.06L36.4168 64.1817C35.6546 68.5791 35.6546 72.4381 40.7212 72.5727C40.8109 72.5727 48.7471 72.5727 48.7471 72.5727C48.9713 72.5727 49.1507 72.483 49.1955 72.3035L50.9442 64.1369L52.648 55.9703C52.648 55.9703 52.7377 55.7908 52.648 55.7908Z" fill="white"/>
<path d="M13.1013 55.7908H8.8417C8.61752 55.7908 8.43817 55.8356 8.39333 56.06L7.63109 59.3805C7.58625 59.56 7.72077 59.7395 7.94495 59.7395H12.0252C12.2494 59.7395 12.4287 59.56 12.4735 59.3356L13.1909 55.9703C13.1909 55.9703 13.2806 55.7908 13.1013 55.7908Z" fill="white"/>
<path d="M7.6759 60.8164C7.45172 60.8164 7.27237 60.9959 7.22753 61.1754L6.64464 63.7331L5.34435 69.6112C5.34435 69.6112 4.67179 72.7074 4.58212 72.9317C4.58212 72.9317 3.99923 75.1753 2.6541 75.0855C2.02638 75.0407 1.30898 74.9061 1.30898 74.9061C0.905439 74.7714 0.905439 75.1753 0.860602 75.3996L0.0086902 79.0342C-0.0361473 79.2137 0.0983645 79.3932 0.277714 79.4381C0.277714 79.4381 2.11605 79.7073 3.41634 79.7073H3.64053C6.82399 79.7073 8.52781 77.8227 9.60391 72.7074L10.8594 66.7394L12.0251 61.2203C12.07 61.0408 11.9355 60.8164 11.7561 60.8164" fill="white"/>
<path d="M62.6915 55.7458C55.5175 55.7458 53.8137 60.1881 52.8721 64.5407C51.9305 69.0278 52.0202 72.5727 59.4184 72.5727H59.6874C62.6467 72.5727 66.1888 72.5727 66.1888 72.5727C66.3682 72.5727 66.5924 72.3932 66.6372 72.1688L67.3546 69.3419C67.3994 69.1624 67.2649 69.0727 67.0407 69.0727H60.36C57.9387 69.0727 57.0868 68.3099 57.1765 66.6496C57.1765 66.4701 57.4007 65.9766 57.58 65.9766H67.8478C68.2962 65.9766 68.2962 65.7073 68.2962 65.7073C69.4171 61.0407 69.462 55.7458 62.6915 55.7458ZM64.5747 62.7907C64.5747 63.015 63.8573 62.9702 63.8573 62.9702L58.2974 62.9253C58.1181 62.9253 58.0284 62.6561 58.0284 62.4766C58.0284 62.4766 58.0284 62.2522 58.0732 62.2073C58.5216 60.7266 59.7771 59.874 61.8396 59.874C64.1263 59.874 64.6195 60.9958 64.6195 62.2971" fill="white"/>
<path d="M31.7536 67.951C31.7536 67.951 33.7713 63.06 34.2197 60.2779C34.8474 56.5087 32.9642 51.0344 25.6557 51.0344C18.4369 51.0344 15.2983 56.2395 14.0877 61.9382C12.877 67.6369 14.4464 72.6176 21.6652 72.5727H32.6504C32.8746 72.5727 33.0539 72.3932 33.0987 72.2137L34.0403 68.6689C34.0852 68.4894 33.9507 68.3099 33.7713 68.3099H32.8746H31.9778C31.7985 68.3099 31.7088 68.1753 31.7088 68.0407C31.7536 68.0407 31.7536 67.9958 31.7536 67.951ZM27.9873 64.9894L27.1802 67.8163C27.1354 67.9958 26.9112 68.1304 26.687 68.1304H22.4274C19.1991 68.1304 18.392 65.6176 19.1991 61.8933C20.0062 58.0792 21.5307 55.7459 24.7141 55.4767C29.0634 55.1626 29.9601 58.2139 28.884 61.7587L27.9873 64.9894Z" fill="white"/>
<path d="M28.0288 11.8183C23.5497 18.0704 24.1339 26.3424 27.5419 32.9792C27.5419 33.1715 27.6393 33.3639 27.7366 33.5563C27.7366 33.6525 27.834 33.7486 27.9314 33.8448C27.9314 33.941 28.0288 33.941 28.0288 34.0372C28.1261 34.1334 28.1261 34.2296 28.2235 34.3258C28.3209 34.5181 28.4182 34.7105 28.5156 34.9029C28.613 34.9991 28.613 35.0952 28.7104 35.1914C28.8077 35.3838 29.0025 35.5762 29.0998 35.7685C29.1972 35.8647 29.1972 35.9609 29.2946 36.0571C29.4893 36.3456 29.6841 36.538 29.8788 36.8266L29.9762 36.9228C30.1709 37.1151 30.2683 37.4037 30.463 37.5961C30.5604 37.6922 30.5604 37.7884 30.6578 37.7884C30.8525 37.9808 30.9499 38.1732 31.1446 38.3655C31.242 38.4617 31.242 38.4617 31.3394 38.5579C31.5341 38.8465 31.7289 39.0388 32.021 39.2312C32.2157 39.4236 32.4104 39.7121 32.7026 39.9045C32.7999 40.0007 32.7999 40.0007 32.8973 40.0969C33.092 40.2893 33.1894 40.3854 33.3842 40.5778C33.4815 40.674 33.4815 40.674 33.5789 40.7702C33.7736 40.9626 34.0658 41.1549 34.2605 41.4435L34.3579 41.5397C34.5526 41.732 34.7473 41.9244 35.0395 42.1168C35.1368 42.213 35.2342 42.213 35.3316 42.3092C35.5263 42.4053 35.7211 42.5977 35.9158 42.6939C36.0132 42.7901 36.1105 42.7901 36.2079 42.8863C36.4027 43.0786 36.5974 43.1748 36.7921 43.271C36.8895 43.3672 36.8895 43.3672 36.9869 43.4634C36.9869 43.4634 36.9869 43.4634 37.0843 43.4634C37.279 43.5596 37.4737 43.7519 37.6685 43.8481C37.7658 43.9443 37.8632 43.9443 37.9606 44.0405C38.2527 44.2329 38.5448 44.4252 38.8369 44.6176C38.9343 44.6176 39.0317 44.7138 39.129 44.7138C39.3238 44.81 39.6159 45.0023 39.8106 45.0985C39.908 45.1947 40.1027 45.1947 40.2001 45.2909C40.3949 45.3871 40.4922 45.4833 40.687 45.5795C40.687 45.5795 40.7843 45.5795 40.7843 45.6756C40.8817 45.6756 40.8817 45.7718 40.9791 45.7718C41.2712 45.868 41.4659 46.0604 41.7581 46.1566C41.8554 46.1566 41.8554 46.1566 41.9528 46.2528C42.2449 46.3489 42.537 46.5413 42.8291 46.6375C42.9265 46.6375 42.9265 46.7337 43.0239 46.7337C43.316 46.8299 43.6081 46.9261 43.9002 47.0222H43.9976C44.2897 47.1184 44.6792 47.2146 44.9713 47.3108C45.0687 47.3108 45.166 47.407 45.166 47.407C45.4581 47.5032 45.8476 47.5994 46.1397 47.6955C67.5613 51.543 73.7931 34.9991 73.7931 34.9991C68.5351 41.732 59.2848 43.4634 50.4241 41.5397C50.132 41.4435 49.7425 41.3473 49.4504 41.2511C49.353 41.2511 49.2556 41.2511 49.2556 41.1549C48.9635 41.0587 48.574 40.9626 48.2819 40.8664C48.2819 40.8664 48.1845 40.8664 48.1845 40.7702C47.8924 40.674 47.6003 40.5778 47.3082 40.4816C47.2108 40.4816 47.1135 40.3854 47.1135 40.3854C46.8213 40.2893 46.5292 40.0969 46.2371 40.0007C46.1397 40.0007 46.1397 39.9045 46.0424 39.9045C45.7503 39.8083 45.5555 39.7121 45.2634 39.5198C45.166 39.5198 45.166 39.4236 45.0687 39.4236C44.8739 39.3274 44.6792 39.2312 44.4844 39.135C44.3871 39.0388 44.1923 39.0388 44.095 38.9427C43.9002 38.8465 43.6081 38.6541 43.4134 38.5579C43.316 38.4617 43.2186 38.4617 43.2186 38.4617C42.9265 38.2694 42.6344 38.077 42.3423 37.8846C42.2449 37.7884 42.1475 37.7884 42.0502 37.6922C41.8554 37.5961 41.5633 37.4037 41.3686 37.3075C41.2712 37.2113 41.2712 37.2113 41.1738 37.1151C40.9791 37.019 40.7843 36.8266 40.5896 36.6342C40.4922 36.538 40.3949 36.538 40.2975 36.4418C40.1027 36.3457 39.908 36.1533 39.7133 36.0571C39.6159 35.9609 39.5185 35.9609 39.4212 35.8647C39.2264 35.6724 38.9343 35.48 38.7396 35.2876C38.7396 35.2876 38.6422 35.2876 38.6422 35.1914C38.4474 34.9991 38.1553 34.7105 37.9606 34.5181C37.8632 34.4219 37.8632 34.4219 37.7658 34.3258C37.5711 34.1334 37.3764 34.0372 37.279 33.8448C37.1816 33.7486 37.1816 33.7486 37.0843 33.6525C36.8895 33.4601 36.6948 33.1715 36.4027 32.9792C36.2079 32.7868 36.0132 32.4982 35.7211 32.2097C35.6237 32.1135 35.6237 32.1135 35.5263 32.0173C35.3316 31.8249 35.2342 31.6326 35.0395 31.4402C34.9421 31.344 34.9421 31.344 34.8447 31.2478C34.5526 31.1516 34.3579 30.8631 34.1631 30.6707C29.2946 24.1301 27.5419 14.9925 31.4367 7.58618" fill="#0769AD"/>
<path d="M41.7269 5.94922C38.4903 10.7249 38.6864 16.993 41.2365 21.9677C41.6289 22.7636 42.1193 23.6591 42.7077 24.3555C43.1981 25.052 43.6885 25.8479 44.3751 26.4449C44.5713 26.7434 44.8655 26.9423 45.0617 27.2408C45.1598 27.3403 45.1598 27.3403 45.2578 27.4398C45.454 27.6388 45.7482 27.9373 46.0425 28.1363C46.3367 28.4347 46.631 28.6337 46.9252 28.8327C47.0233 28.9322 47.0233 28.9322 47.1214 29.0317C47.4156 29.2307 47.7098 29.5292 48.0041 29.7282C48.1022 29.8277 48.2983 29.9271 48.3964 30.0266C48.4945 30.0266 48.4945 30.1261 48.5926 30.1261C48.7887 30.2256 49.083 30.4246 49.2791 30.5241C49.2791 30.5241 49.3772 30.5241 49.3772 30.6236C49.5734 30.7231 49.7695 30.8226 49.9657 30.9221C50.0638 30.9221 50.0638 31.0216 50.1619 31.0216C50.2599 31.1211 50.4561 31.1211 50.5542 31.2206C50.5542 31.2206 50.5542 31.2206 50.6523 31.2206C50.9465 31.3201 51.2407 31.519 51.535 31.6185C51.6331 31.6185 51.6331 31.718 51.7311 31.718C51.9273 31.8175 52.2215 31.917 52.4177 32.0165C52.5158 32.0165 52.6139 32.116 52.7119 32.116C52.9081 32.2155 53.1043 32.315 53.3985 32.315C53.4966 32.315 53.5947 32.4145 53.6927 32.4145C53.987 32.514 54.2812 32.6135 54.6736 32.713C71.3472 35.4988 75.1724 22.4651 75.1724 22.4651C71.7395 27.5393 64.972 29.9272 57.8121 28.0368C57.5179 27.9373 57.2236 27.8378 56.8313 27.7383C56.7332 27.7383 56.6352 27.6388 56.5371 27.6388C56.3409 27.5393 56.0467 27.5393 55.8505 27.4398C55.7524 27.4398 55.6544 27.3403 55.5563 27.3403C55.3601 27.2408 55.0659 27.1413 54.8697 27.0418C54.7716 27.0418 54.7716 26.9423 54.6736 26.9423C54.3793 26.8429 54.0851 26.6439 53.7908 26.5444C53.6927 26.4449 53.4966 26.3454 53.3985 26.3454C53.3004 26.3454 53.2023 26.2459 53.1043 26.2459C52.9081 26.1464 52.7119 26.0469 52.5158 25.9474C52.5158 25.9474 52.4177 25.9474 52.4177 25.8479C52.2215 25.7484 51.9273 25.5494 51.7311 25.4499C51.6331 25.4499 51.6331 25.3504 51.535 25.3504C51.4369 25.251 51.2407 25.1515 51.1427 25.052C50.8484 24.853 50.5542 24.654 50.2599 24.3555C50.1619 24.256 50.1619 24.256 50.0638 24.1565C46.9252 21.6692 44.4732 18.1869 43.2962 14.3067C42.0212 10.2274 42.3154 5.75023 44.4732 2.06897" fill="#0769AD"/>
<path d="M53.3345 1.80009C51.4567 4.70024 51.259 8.20043 52.5438 11.4006C53.9275 14.8008 56.7937 17.4009 60.154 18.601C60.2529 18.701 60.4505 18.701 60.5494 18.701C60.6482 18.701 60.6482 18.701 60.747 18.801C60.9447 18.901 61.1424 18.901 61.34 19.001C70.6304 20.8011 73.1012 14.2007 73.7931 13.2007C71.6187 16.4009 67.8631 17.2009 63.3167 16.1008C62.9214 16.0008 62.526 15.9008 62.2295 15.8008C61.8342 15.6008 61.34 15.5008 60.9447 15.3008C60.154 14.9008 59.3634 14.4008 58.6715 13.9007C54.6193 10.8006 52.0497 4.80025 54.7182 0" fill="#0769AD"/>
</svg>

<svg xmlns="http://www.w3.org/2000/svg" viewBox="0 0 99.81 79.71"><defs><style>.cls-1{fill:#fff;}.cls-2{fill:#0769ad;}</style></defs><title>jquery</title><g id="Слой_2" data-name="Слой 2"><g id="Слой_1-2" data-name="Слой 1"><path class="cls-1" d="M86,59.47l-.4-1.79c-.32-1.31-1.26-1.89-3.36-1.89H73.32c-.23,0-.41.09-.45.31l-3.36,16a1.84,1.84,0,0,0-.05.45c.05.09.41.09.63.09h3.09a2.53,2.53,0,0,0,.68-.05c.13,0,.18-.36.22-.54l1.08-5.6,1.34-6.24a.49.49,0,0,1,.45-.36h8.79A.28.28,0,0,0,86,59.47Z"/><path class="cls-1" d="M98.47,53h-3.9c-.22,0-.45.23-.58.41L87.13,63.42c-.14.18-.27.18-.32-.05l-.49-2.19a.53.53,0,0,0-.45-.36H81.48a.27.27,0,0,0-.27.36l2,6.91a1.7,1.7,0,0,1,0,.71l-.94,3.5c0,.18.09.27.27.27h4.35c.22,0,.4,0,.45-.27l.94-3.54a2,2,0,0,1,.31-.63L99.73,53.32c.13-.18.09-.36-.09-.36Z"/><path class="cls-1" d="M52.65,55.79h-4c-.23,0-.41.09-.45.27l-1.3,6.15-1.3,5.88c0,.17-.23.17-.45.17h-2.6c-2.6,0-2.29-1.61-1.75-4.08,0,0,1.66-8.12,1.66-8.12,0-.18-.09-.27-.31-.27H38.39a.42.42,0,0,0-.45.27l-1.52,8.12c-.77,4.4-.77,8.26,4.3,8.39h8a.42.42,0,0,0,.45-.27l1.74-8.16L52.65,56S52.74,55.79,52.65,55.79Z"/><path class="cls-1" d="M13.1,55.79H8.84c-.22,0-.4.05-.45.27l-.76,3.32a.3.3,0,0,0,.31.36H12a.47.47,0,0,0,.44-.4L13.19,56S13.28,55.79,13.1,55.79Z"/><path class="cls-1" d="M7.68,60.82a.47.47,0,0,0-.45.36l-.59,2.55-1.3,5.88s-.67,3.1-.76,3.32c0,0-.58,2.25-1.93,2.16-.62,0-1.34-.18-1.34-.18-.4-.14-.4.27-.45.49L0,79a.35.35,0,0,0,.27.41,26.93,26.93,0,0,0,3.14.27h.22c3.18,0,4.89-1.89,6-7l1.26-6L12,61.22a.33.33,0,0,0-.27-.4"/><path class="cls-1" d="M62.69,55.75c-7.17,0-8.88,4.44-9.82,8.79s-.85,8,6.55,8h6.77a.53.53,0,0,0,.45-.4l.71-2.83c.05-.18-.09-.27-.31-.27H60.36c-2.42,0-3.27-.76-3.18-2.42,0-.18.22-.67.4-.67H67.85c.45,0,.45-.27.45-.27C69.42,61,69.46,55.75,62.69,55.75Zm1.88,7c0,.22-.71.18-.71.18l-5.56,0c-.18,0-.27-.27-.27-.45,0,0,0-.23,0-.27.45-1.48,1.71-2.34,3.77-2.34,2.29,0,2.78,1.13,2.78,2.43"/><path class="cls-1" d="M31.75,68a47.73,47.73,0,0,0,2.47-7.67C34.85,56.51,33,51,25.66,51S15.3,56.24,14.09,61.94s.36,10.68,7.58,10.63h11a.49.49,0,0,0,.45-.36L34,68.67a.29.29,0,0,0-.27-.36H32a.26.26,0,0,1-.27-.27S31.75,68,31.75,68ZM28,65l-.81,2.83a.5.5,0,0,1-.49.31H22.43c-3.23,0-4-2.51-3.23-6.24s2.33-6.14,5.51-6.41c4.35-.32,5.25,2.73,4.17,6.28Z"/><path class="cls-2" d="M28,11.82c-4.48,6.25-3.9,14.52-.49,21.16a1.39,1.39,0,0,0,.2.58c0,.09.09.19.19.28s.1.1.1.2.1.19.19.29l.3.57c.09.1.09.2.19.29s.29.39.39.58.1.19.19.29c.2.29.39.48.59.77l.1.09c.19.2.29.48.48.68s.1.19.2.19c.19.19.29.38.48.58l.2.19a2.17,2.17,0,0,0,.68.67,4.81,4.81,0,0,0,.68.67l.2.2.48.48.2.19a4.26,4.26,0,0,1,.68.67l.1.1a4.64,4.64,0,0,0,.68.58c.1.09.19.09.29.19s.39.29.59.38.19.1.29.2a2.14,2.14,0,0,0,.58.38l.2.19h.09c.2.1.39.29.59.39s.19.09.29.19l.88.58c.09,0,.19.09.29.09l.68.39c.1.09.29.09.39.19s.29.19.49.29a.09.09,0,0,1,.09.1c.1,0,.1.09.2.09.29.1.49.29.78.39.1,0,.1,0,.19.09.29.1.59.29.88.39.1,0,.1.09.19.09l.88.29H44c.29.1.68.19,1,.29a.35.35,0,0,1,.2.1c.29.09.68.19,1,.29C67.56,51.54,73.79,35,73.79,35c-5.25,6.73-14.51,8.46-23.37,6.54-.29-.1-.68-.19-1-.29-.1,0-.19,0-.19-.1l-1-.28a.1.1,0,0,1-.1-.1l-.87-.29a.36.36,0,0,1-.2-.09c-.29-.1-.58-.29-.87-.39-.1,0-.1-.1-.2-.1a2.94,2.94,0,0,1-.78-.38c-.09,0-.09-.1-.19-.1l-.59-.29c-.09-.09-.29-.09-.38-.19s-.49-.29-.69-.38a.28.28,0,0,0-.19-.1l-.88-.58c-.1-.09-.19-.09-.29-.19s-.49-.29-.68-.38l-.2-.19a2.52,2.52,0,0,1-.58-.49c-.1-.09-.2-.09-.29-.19s-.39-.29-.59-.38-.19-.1-.29-.2-.49-.38-.68-.57a.1.1,0,0,1-.1-.1L38,34.52l-.19-.19c-.2-.2-.39-.29-.49-.49l-.2-.19A4.33,4.33,0,0,0,36.4,33c-.19-.19-.39-.48-.68-.77L35.53,32c-.2-.2-.3-.39-.49-.58l-.2-.19c-.29-.1-.48-.39-.68-.58C29.29,24.13,27.54,15,31.44,7.59"/><path class="cls-2" d="M41.73,6c-3.24,4.77-3,11-.49,16a12.11,12.11,0,0,0,1.47,2.39,10.89,10.89,0,0,0,1.67,2.08c.19.3.49.5.68.8l.2.2a5.48,5.48,0,0,0,.78.7,6,6,0,0,0,.89.69l.19.2c.3.2.59.5.88.7.1.1.3.2.4.3s.09.1.19.1.49.29.69.39a.1.1,0,0,1,.1.1l.59.3c.09,0,.09.1.19.1s.3.1.39.2h.1c.3.1.59.3.88.4.1,0,.1.1.2.1s.49.2.69.3.19.1.29.1a1.4,1.4,0,0,0,.69.19c.1,0,.19.1.29.1.3.1.59.2,1,.3,16.68,2.79,20.5-10.24,20.5-10.24C71.74,27.54,65,29.93,57.81,28c-.29-.1-.59-.2-1-.3-.1,0-.19-.1-.29-.1s-.49-.1-.69-.2-.2-.1-.29-.1-.49-.2-.69-.3-.1-.1-.2-.1c-.29-.1-.58-.3-.88-.4a.71.71,0,0,0-.39-.19c-.1,0-.2-.1-.3-.1l-.58-.3a.1.1,0,0,1-.1-.1c-.2-.1-.49-.3-.69-.4s-.1-.1-.2-.1-.29-.2-.39-.3a5.89,5.89,0,0,1-.88-.69l-.2-.2a20.25,20.25,0,0,1-6.76-9.85A15.24,15.24,0,0,1,44.47,2.07"/><path class="cls-2" d="M53.33,1.8a10.37,10.37,0,0,0-.79,9.6,13,13,0,0,0,7.61,7.2.6.6,0,0,0,.4.1c.1,0,.1,0,.2.1s.39.1.59.2c9.29,1.8,11.76-4.8,12.45-5.8-2.17,3.2-5.93,4-10.47,2.9-.4-.1-.79-.2-1.09-.3s-.89-.3-1.29-.5a17.25,17.25,0,0,1-2.27-1.4c-4.05-3.1-6.62-9.1-4-13.9"/></g></g></svg>
